X:1
T:Title
%%score ( 1 2 ) 3 ( 4 5 )
L:1/8
Q:1/4=120
M:2/4
K:D
V:1 treble nm="Picked Bass, Soprano Voice"
V:2 treble 
V:3 bass nm="Picked Bass, Tenor Voice"
V:4 bass nm="Picked Bass, Baritone Voice"
V:5 bass 
V:1
 z4 | e2 z/4 .e3/4.e | f2 fd | B2 cB | e4 | A4 | dc e2 | e2 (3:2:4z/ e/ z e | c4 | c2 .A.A | %10
 e2 .e.e | c2 .e.e | c4 | c2 .AA | e2 .ee | c2 .e.e | e4 | e z/ e/ e2 | A2 .A.A | B2 cB | e4 | B4 | %22
 A/ z/4 z/8 c/8c e2 | e.e c2 |] %24
V:2
 x4 | x4 | x4 | x4 | x4 | x4 | x4 | x4 | x4 | x4 | x4 | x4 | x4 | x4 | x4 | x4 | x4 | x4 | x4 | %19
 x4 | x4 | x4 | z/ .A3/2 z2 | x4 |] %24
V:3
 z4 | .A,2 A,B, | C2 C[K:treble]D | E2 FE | C4 | E4 | DC B,2 | C2 CB, | A,4 | E2 DC | B,2 .E,E, | %11
 C2 B,.A, | A,4 | E2 DC | B,2 E,E, | C2 B,.A, | A,4 | .A,2 A,.B, | .C2 CD | E2 FE | C4 | E4 | %22
 D[K:bass]C B,2 | CB, A,2 |] %24
V:4
 z4 | A,2 A,E, | F,2 F,D, | E,2 F,E, | A,4 | E,4 | D,F, E,2 | .A,2 A,.[E,=F,] | A,,4 | A,2 D,F, | %10
 z2 A,A, | F,2- (3:2:4F,/E,/ z E, | A,,4 | A,2 D,F, | E,2 .A,A, | F,2 .E,E, | A,,4 | %17
 .[E,A,]2 .[E,A,].E, | F,2 F,D, | E,2 F,E, | A,4 | E,4 | D,F, E,2 | A,E, A,,2 |] %24
V:5
 x4 | x4 | x4 | x4 | x4 | x4 | x4 | x4 | x4 | x4 | E,4 | x4 | x4 | x4 | x4 | x4 | x4 | x4 | x4 | %19
 x4 | x4 | x4 | x4 | x4 |] %24

